icons/lines/smallcaps.svg

<svg xmlns="http://www.w3.org/2000/svg" width="24" height="24" viewBox="0 0 24 24" fill="none" stroke="currentColor" stroke-width="2" stroke-linecap="round" stroke-linejoin="round" >
  <path d="M1.99023 5.93001V4.42001C1.99023 3.40001 2.82023 2.57001 3.84023 2.57001H16.7602C17.7802 2.57001 18.6102 3.40001 18.6102 4.42001V5.93001"/>
  <path d="M10.2998 18.1V3.32001"/>
  <path d="M6.8999 18.1H12.4799"/>
  <path d="M13.6802 10.34H20.6902C21.4202 10.34 22.0102 10.93 22.0102 11.66V12.46"/>
  <path d="M16.0801 21.43V10.87"/>
  <path d="M13.9399 21.43H18.2199"/>
  </svg>

<svg xmlns="http://www.w3.org/2000/svg" width="24" height="24" viewBox="0 0 24 24" fill="none" stroke="currentColor" stroke-width="2" stroke-linecap="round" stroke-linejoin="round">
  <path d="M1.99 5.93V4.42a1.85 1.85 0 0 1 1.85-1.85h12.92a1.85 1.85 0 0 1 1.85 1.85v1.51" />
  <path d="M10.3 18.1V3.32" />
  <path d="M13.68 10.34h7.01a1.32 1.32 0 0 1 1.32 1.32v.8" />
  <path d="M13.94 21.43h4.28" />
  <path d="M16.08 21.43V10.87" />
  <path d="M6.9 18.1h5.58" />
</svg>
